X:34d
T:Denver Belle - Rector
S:Jim Coon to CoMandoList TOW
M:4/4
L:1/8
Q:470
K:C
AB|:"C"eg2e g2ge|gagf edc2|e2e2 e2e2|edcA GDED|!
"G"GABc d2d^c|dedc BAGD|"F"FGA_B c2cc|1 e"C"cdc AGz2:|2 e"C"cdc Aczd|!
c2cA|:"G"Bc^cd g2gg|dega b2b2|"D7"de^fg agfa|"G"g2ga gedc|!
Bc^cd g2gg|dega b2b2|\
"D7"de^fg agfa||1 g2[g2d2] [g2d2][gd][gd]:|2 g2 (3^fgf "G7"=f4||!
